X: 38913
T: Superfly
R: reel
M: 4/4
K: Bminor
bffe f3e|dfef d2B2|cded cBA2|BdcA BAFA|
bffe f3e|dfef d2B2|cded cBA2|BdcA B4:|
BdcB A2(A2|A)Bcd cBBA|BdcB A2(A2|A)Bcd B4|
BdcB A2(A2|A)Bcd cBBA|BdcB A2(A2|A)Bcd B4:|

